X: 1
T: Prince William II
R: jig
Z: 2017 John Chambers <jc:trillian.mit.edu>
O: handwritten MS of unknown origin
M: 6/8
L: 1/8
K: A
|:\
"A"AGA E2E | "D"F2F "A"E3 | AGA B2c | "E7"d2e dcB |\
"A"AGA E2E | "D"F2F "A"E3 | AGA "D"Bdc | "E7"BAG "A"A2z :|
|:\
"A"c2d efg | "D"agf "A"ede | "D"fed "A"cBA | "E7"G2A B2E |\
"A"c2d efg | "D"agf "A"ede | "D"fed "A"cBA | "E7"ABG "A"A2z :|
